src/icons/k8s-storageclass.svg

<?xml version="1.0" encoding="UTF-8"?>
<svg xmlns="http://www.w3.org/2000/svg" xmlns:xlink="http://www.w3.org/1999/xlink" width="32.978184" height="32" viewBox="0 0 32.978184 32" version="1.1">
<g id="surface1">
<path style=" stroke:none;fill-rule:nonzero;fill:rgb(19.607843%,42.352942%,89.803922%);fill-opacity:1;" d="M 16.378906 0.847656 C 16.105469 0.859375 15.832031 0.929688 15.585938 1.046875 L 4.722656 6.238281 C 4.15625 6.507812 3.742188 7.023438 3.601562 7.636719 L 0.921875 19.292969 C 0.796875 19.835938 0.898438 20.402344 1.203125 20.871094 C 1.238281 20.925781 1.277344 20.980469 1.320312 21.035156 L 8.839844 30.382812 C 9.234375 30.871094 9.832031 31.15625 10.460938 31.15625 L 22.515625 31.152344 C 23.148438 31.152344 23.746094 30.871094 24.140625 30.378906 L 31.65625 21.03125 C 32.050781 20.542969 32.199219 19.898438 32.058594 19.289062 L 29.375 7.632812 C 29.234375 7.019531 28.820312 6.507812 28.25 6.234375 L 17.386719 1.046875 C 17.074219 0.898438 16.726562 0.828125 16.378906 0.847656 Z M 16.378906 0.847656 "/>
<path style=" stroke:none;fill-rule:nonzero;fill:rgb(100%,100%,100%);fill-opacity:1;" d="M 16.375 0.00390625 C 16.082031 0.0195312 15.796875 0.0898438 15.535156 0.214844 L 4.070312 5.695312 C 3.46875 5.980469 3.03125 6.523438 2.882812 7.167969 L 0.0546875 19.472656 C -0.078125 20.046875 0.03125 20.648438 0.351562 21.140625 C 0.390625 21.203125 0.433594 21.257812 0.476562 21.3125 L 8.414062 31.183594 C 8.828125 31.699219 9.460938 32 10.128906 32 L 22.851562 31.996094 C 23.519531 31.996094 24.152344 31.695312 24.566406 31.179688 L 32.5 21.3125 C 32.914062 20.792969 33.070312 20.117188 32.921875 19.472656 L 30.089844 7.164062 C 29.941406 6.519531 29.503906 5.980469 28.90625 5.691406 L 17.4375 0.214844 C 17.109375 0.0585938 16.742188 -0.015625 16.375 0.00390625 Z M 16.378906 0.847656 C 16.726562 0.828125 17.074219 0.898438 17.386719 1.046875 L 28.25 6.234375 C 28.820312 6.507812 29.230469 7.023438 29.375 7.632812 L 32.058594 19.289062 C 32.199219 19.902344 32.050781 20.542969 31.65625 21.03125 L 24.140625 30.378906 C 23.746094 30.871094 23.148438 31.15625 22.515625 31.152344 L 10.460938 31.15625 C 9.828125 31.15625 9.230469 30.871094 8.839844 30.382812 L 1.320312 21.035156 C 1.277344 20.984375 1.238281 20.929688 1.203125 20.871094 C 0.898438 20.402344 0.796875 19.835938 0.921875 19.292969 L 3.601562 7.636719 C 3.742188 7.023438 4.15625 6.511719 4.722656 6.238281 L 15.585938 1.046875 C 15.832031 0.929688 16.105469 0.859375 16.378906 0.847656 Z M 16.378906 0.847656 "/>
<path style=" stroke:none;fill-rule:evenodd;fill:rgb(19.607843%,42.352942%,89.803922%);fill-opacity:1;" d="M 8.09375 17.101562 C 8.09375 17.789062 11.941406 18.347656 16.6875 18.347656 C 21.429688 18.347656 25.277344 17.789062 25.277344 17.101562 L 25.277344 20.476562 C 25.277344 21.164062 21.429688 21.722656 16.6875 21.722656 C 11.941406 21.722656 8.09375 21.164062 8.09375 20.476562 Z M 8.09375 17.101562 "/>
<path style=" stroke:none;fill-rule:evenodd;fill:rgb(19.607843%,42.352942%,89.803922%);fill-opacity:1;" d="M 8.09375 17.101562 C 8.09375 16.414062 11.941406 15.855469 16.6875 15.855469 C 21.429688 15.855469 25.277344 16.414062 25.277344 17.101562 C 25.277344 17.789062 21.429688 18.347656 16.6875 18.347656 C 11.941406 18.347656 8.09375 17.789062 8.09375 17.101562 Z M 8.09375 17.101562 "/>
<path style="fill-rule:evenodd;fill:rgb(100%,100%,100%);fill-opacity:1;stroke-width:0.207574;stroke-linecap:square;stroke-linejoin:miter;stroke:rgb(93.333334%,93.333334%,93.333334%);stroke-opacity:1;stroke-miterlimit:10;" d="M 5.418991 8.608423 C 5.418991 8.986544 7.523224 9.292032 10.1188 9.292032 C 12.71224 9.292032 14.816472 8.986544 14.816472 8.608423 L 14.816472 10.454166 C 14.816472 10.830151 12.71224 11.135639 10.1188 11.135639 C 7.523224 11.135639 5.418991 10.830151 5.418991 10.454166 Z M 5.418991 8.608423 " transform="matrix(1.828532,0,0,1.828532,-1.815049,-2.147027)"/>
<path style=" stroke:none;fill-rule:evenodd;fill:rgb(19.607843%,42.352942%,89.803922%);fill-opacity:1;" d="M 8.09375 12.878906 C 8.09375 12.1875 11.941406 11.632812 16.6875 11.632812 C 21.429688 11.632812 25.277344 12.1875 25.277344 12.878906 C 25.277344 13.566406 21.429688 14.125 16.6875 14.125 C 11.941406 14.125 8.09375 13.566406 8.09375 12.878906 Z M 8.09375 12.878906 "/>
<path style=" stroke:none;fill-rule:evenodd;fill:rgb(19.607843%,42.352942%,89.803922%);fill-opacity:1;" d="M 8.09375 8.207031 C 8.09375 7.515625 11.941406 6.957031 16.6875 6.957031 C 21.429688 6.957031 25.277344 7.515625 25.277344 8.207031 C 25.277344 8.894531 21.429688 9.453125 16.6875 9.453125 C 11.941406 9.453125 8.09375 8.894531 8.09375 8.207031 Z M 8.09375 8.207031 "/>
<path style=" stroke:none;fill-rule:evenodd;fill:rgb(19.607843%,42.352942%,89.803922%);fill-opacity:1;" d="M 7.898438 9.542969 C 7.898438 10.230469 11.746094 10.789062 16.488281 10.789062 C 21.234375 10.789062 25.078125 10.230469 25.078125 9.542969 L 25.078125 12.914062 C 25.078125 13.605469 21.234375 14.160156 16.488281 14.160156 C 11.746094 14.160156 7.898438 13.605469 7.898438 12.914062 Z M 7.898438 9.542969 "/>
<path style="fill:none;stroke-width:0.415;stroke-linecap:butt;stroke-linejoin:round;stroke:rgb(100%,100%,100%);stroke-opacity:1;stroke-dasharray:1.66,0.415;stroke-miterlimit:10;" d="M 14.815393 10.881524 C 14.815393 11.257509 12.713296 11.562996 10.11772 11.562996 C 7.524281 11.562996 5.420048 11.257509 5.420048 10.881524 C 5.420048 10.503403 7.524281 10.200052 10.11772 10.200052 C 12.713296 10.200052 14.815393 10.503403 14.815393 10.881524 L 14.815393 12.725131 C 14.815393 13.103252 12.713296 13.408739 10.11772 13.408739 C 7.524281 13.408739 5.420048 13.103252 5.420048 12.725131 L 5.420048 10.881524 " transform="matrix(1.828532,0,0,1.828532,-2.012294,-0.811277)"/>
<path style="fill:none;stroke-width:0.415;stroke-linecap:butt;stroke-linejoin:round;stroke:rgb(100%,100%,100%);stroke-opacity:1;stroke-miterlimit:10;" d="M 14.815393 7.862965 C 14.815393 8.241086 12.713296 8.546574 10.11772 8.546574 C 7.524281 8.546574 5.420048 8.241086 5.420048 7.862965 C 5.420048 7.486981 7.524281 7.181493 10.11772 7.181493 C 12.713296 7.181493 14.815393 7.486981 14.815393 7.862965 L 14.815393 9.708708 C 14.815393 10.084693 12.713296 10.39018 10.11772 10.39018 C 7.524281 10.39018 5.420048 10.084693 5.420048 9.708708 L 5.420048 7.862965 " transform="matrix(1.828532,0,0,1.828532,-2.012294,-0.811277)"/>
<path style="fill:none;stroke-width:0.415149;stroke-linecap:butt;stroke-linejoin:round;stroke:rgb(100%,100%,100%);stroke-opacity:1;stroke-dasharray:1.660594,0.415149;stroke-miterlimit:10;" d="M 14.815393 5.6626 C 14.815393 6.038585 12.713296 6.344073 10.11772 6.344073 C 7.524281 6.344073 5.420048 6.038585 5.420048 5.6626 C 5.420048 5.284479 7.524281 4.978992 10.11772 4.978992 C 12.713296 4.978992 14.815393 5.284479 14.815393 5.6626 L 14.815393 7.506207 C 14.815393 7.884328 12.713296 8.187679 10.11772 8.187679 C 7.524281 8.187679 5.420048 7.884328 5.420048 7.506207 L 5.420048 5.6626 " transform="matrix(1.828532,0,0,1.828532,-2.012294,-0.811277)"/>
</g>
</svg>

<svg role="img" viewBox="0 0 32.978 32" xmlns="http://www.w3.org/2000/svg"><path d="M16.379.848a2.066 2.066 0 0 0-.793.199L4.723 6.238a2.06 2.06 0 0 0-1.121 1.399L.922 19.293a2.046 2.046 0 0 0 .398 1.742l7.52 9.348c.394.488.992.773 1.62.773l12.056-.004c.632 0 1.23-.28 1.625-.773l7.515-9.348a2.045 2.045 0 0 0 .403-1.742L29.375 7.633a2.063 2.063 0 0 0-1.125-1.399L17.387 1.047a2.082 2.082 0 0 0-1.008-.2m0 0" style="stroke:none;fill-rule:nonzero;fill:rgb(19.607843%,42.352942%,89.803922%);fill-opacity:1"/><path d="M16.375.004a2.22 2.22 0 0 0-.84.21L4.07 5.696a2.171 2.171 0 0 0-1.187 1.473L.055 19.473a2.164 2.164 0 0 0 .297 1.668c.039.062.082.117.125.172l7.937 9.87A2.2 2.2 0 0 0 10.13 32l12.723-.004c.668 0 1.3-.3 1.714-.816l7.934-9.867a2.17 2.17 0 0 0 .422-1.84L30.09 7.164a2.185 2.185 0 0 0-1.184-1.473L17.438.215a2.206 2.206 0 0 0-1.063-.211m.004.844c.348-.02.695.05 1.008.199L28.25 6.234c.57.274.98.79 1.125 1.399l2.684 11.656a2.042 2.042 0 0 1-.403 1.742l-7.515 9.348a2.065 2.065 0 0 1-1.625.773l-12.055.004c-.633 0-1.23-.285-1.621-.773l-7.52-9.348a2.046 2.046 0 0 1-.398-1.742l2.68-11.656a2.068 2.068 0 0 1 1.12-1.399l10.864-5.191c.246-.117.52-.188.793-.2m0 0" style="stroke:none;fill-rule:nonzero;fill:rgb(100%,100%,100%);fill-opacity:1"/><path d="M8.094 17.102c0 .687 3.847 1.246 8.594 1.246 4.742 0 8.59-.559 8.59-1.246v3.375c0 .687-3.848 1.246-8.59 1.246-4.747 0-8.594-.559-8.594-1.246Zm0 0c0-.688 3.847-1.247 8.594-1.247 4.742 0 8.59.56 8.59 1.247s-3.848 1.246-8.59 1.246c-4.747 0-8.594-.559-8.594-1.246m0 0" style="stroke:none;fill-rule:evenodd;fill:rgb(19.607843%,42.352942%,89.803922%);fill-opacity:1"/><path d="M5.419 8.608c0 .379 2.104.684 4.7.684 2.593 0 4.697-.305 4.697-.684v1.846c0 .376-2.104.682-4.697.682-2.596 0-4.7-.306-4.7-.682Zm0 0" style="fill-rule:evenodd;fill:rgb(100%,100%,100%);fill-opacity:1;stroke-width:0.207574;stroke-linecap:square;stroke-linejoin:miter;stroke:rgb(93.333334%,93.333334%,93.333334%);stroke-opacity:1;stroke-miterlimit:10" transform="translate(-1.815 -2.147)scale(1.82853)"/><path d="M8.094 12.879c0-.691 3.847-1.246 8.594-1.246 4.742 0 8.59.555 8.59 1.246 0 .687-3.848 1.246-8.59 1.246-4.747 0-8.594-.559-8.594-1.246m0-4.672c0-.691 3.847-1.25 8.594-1.25 4.742 0 8.59.559 8.59 1.25 0 .688-3.848 1.246-8.59 1.246-4.747 0-8.594-.558-8.594-1.246m-.196 1.336c0 .687 3.848 1.246 8.59 1.246 4.746 0 8.59-.559 8.59-1.246v3.371c0 .691-3.844 1.246-8.59 1.246-4.742 0-8.59-.555-8.59-1.246Zm0 0" style="stroke:none;fill-rule:evenodd;fill:rgb(19.607843%,42.352942%,89.803922%);fill-opacity:1"/><path d="M14.815 10.882c0 .376-2.102.681-4.697.681-2.594 0-4.698-.305-4.698-.681 0-.379 2.104-.682 4.698-.682 2.595 0 4.697.303 4.697.682v1.843c0 .378-2.102.684-4.697.684-2.594 0-4.698-.306-4.698-.684v-1.843" style="fill:none;stroke-width:0.415;stroke-linecap:butt;stroke-linejoin:round;stroke:rgb(100%,100%,100%);stroke-opacity:1;stroke-dasharray:1.66,0.415;stroke-miterlimit:10" transform="translate(-2.012 -.811)scale(1.82853)"/><path d="M14.815 7.863c0 .378-2.102.684-4.697.684-2.594 0-4.698-.306-4.698-.684 0-.376 2.104-.682 4.698-.682 2.595 0 4.697.306 4.697.682v1.846c0 .376-2.102.681-4.697.681-2.594 0-4.698-.305-4.698-.681V7.863" style="fill:none;stroke-width:0.415;stroke-linecap:butt;stroke-linejoin:round;stroke:rgb(100%,100%,100%);stroke-opacity:1;stroke-miterlimit:10" transform="translate(-2.012 -.811)scale(1.82853)"/><path d="M14.815 5.663c0 .376-2.102.681-4.697.681-2.594 0-4.698-.305-4.698-.681 0-.379 2.104-.684 4.698-.684 2.595 0 4.697.305 4.697.684v1.843c0 .378-2.102.682-4.697.682-2.594 0-4.698-.304-4.698-.682V5.663" style="fill:none;stroke-width:0.415149;stroke-linecap:butt;stroke-linejoin:round;stroke:rgb(100%,100%,100%);stroke-opacity:1;stroke-dasharray:1.660594,0.415149;stroke-miterlimit:10" transform="translate(-2.012 -.811)scale(1.82853)"/></svg>
